X: 43061
T: Wind That Shakes The Barley, The
R: reel
M: 4/4
K: Dmajor
A2FA A2FA|B2GB BGdB|A2FA A2de|fded B2dB|
A2FA ADFA|BEGE B2dB|A2FA ABde|fded BAde||
f2ef g2eg|fedf e2de|fdfd a3b|afed Bcde|
f2ef g2eg|fedf e2dA|defg a2ab|afed BcdB||

